X: 339
T:Si j'ay perdu mon amy
N: Derived from Jos2734-Si_jay_perdu_mon_amy.krn
C: Josquin des Prez
%%abc-version 2.0
%%abcx-abcm2ps-target-version 5.9.1 (29 Sep 2008)
%%abc-creator hum2abc beta
%%abcx-conversion-date 2019/02/12 16:15:54
%%abc-edited-by Jesse Rodin
%%abc-edited-by Jesse Rodin; Victoria Chang 2011/07/26/
%%abcx-initial-encoding-date 2011/08/09/
%%humdrum-veritas 601743353
%%humdrum-veritas-data 2265640628
%%linebreak <none>
%%barnumbers 0
L: 1/4
M: 2/1
Q: 1/2=120
V: 1 clef=treble-8
V: 2 clef=treble-8
V: 3 clef=bass
K: F
[V:1] z8 | 
[V:2] B6B2 | 
[V:3] B,,3C,D,2_E,2- | 
[V:1] z8 | 
[V:2] B4B4 | 
[V:3] E,D,B,,3C,D,_E, | 
[V:1] z8 | 
[V:2] A2B4AG | 
[V:3] F,2G,4F,_E, | 
[V:1] f6f2 | 
[V:2] A4z2D2- | 
[V:3] D,8 | 
[V:1] f4f4 | 
[V:2] DEFGA3B | 
[V:3] z2D,3E,F,G, | 
[V:1] e2f4ed | 
[V:2] c2d4cB | 
[V:3] A,2D,2D4 | 
[V:1] e8- | 
[V:2] A8 | 
[V:3] z4C4- | 
[V:1] e8 | 
[V:2] c6B2 | 
[V:3] C2B,2A,2G,2 | 
[V:1] z8 | 
[V:2] A2G2F3G | 
[V:3] F,2E,2D,3C,/B,,/ | 
[V:1] z8 | 
[V:2] A2B2A4 | 
[V:3] A,,G,,G,4^F,2 | 
[V:1] g6f2 | 
[V:2] G8 | 
[V:3] G,3F,E,2D,2 | 
[V:1] e2d2c3d | 
[V:2] z8 | 
[V:3] C,2B,,2A,,2A,2- | 
[V:1] e2f2e4 | 
[V:2] z8 | 
[V:3] A,G,D4^C2 | 
[V:1] d8 | 
[V:2] z4d4- | 
[V:3] D6C2 | 
[V:1] z8 | 
[V:2] d2c2B2A2 | 
[V:3] B,2A,2G,2F,2 | 
[V:1] g6f2 | 
[V:2] G3FGAB2- | 
[V:3] E,6D,2 | 
[V:1] e4d4 | 
[V:2] BAA4G2 | 
[V:3] C,2A,,2B,,4 | 
[V:1] c3de2f2 | 
[V:2] A2cBAGA2- | 
[V:3] A,,8- | 
[V:1] edd4^c2 | 
[V:2] A2F2E4 | 
[V:3] A,,8 | 
[V:1] d8 | 
[V:2] D8 | 
[V:3] B,,6B,,2 | 
[V:1] z8 | 
[V:2] B6B2 | 
[V:3] B,,3C,D,2_E,2- | 
[V:1] z8 | 
[V:2] B4B4 | 
[V:3] E,D,B,,3C,D,_E, | 
[V:1] z8 | 
[V:2] A2B4AG | 
[V:3] F,2G,4F,_E, | 
[V:1] f6f2 | 
[V:2] A4z2D2- | 
[V:3] D,8 | 
[V:1] f4f4 | 
[V:2] DEFGA3B | 
[V:3] z2D,3E,F,G, | 
[V:1] e2f4ed | 
[V:2] c2d4cB | 
[V:3] A,2D,2D4 | 
[V:1] e8- | 
[V:2] A8 | 
[V:3] z4C4- | 
[V:1] e8 | 
[V:2] c6B2 | 
[V:3] C2B,2A,2G,2 | 
[V:1] z8 | 
[V:2] A2G2F3G | 
[V:3] F,2E,2D,3C,/B,,/ | 
[V:1] z8 | 
[V:2] A2B2A4 | 
[V:3] A,,G,,G,4^F,2 | 
[V:1] g6f2 | 
[V:2] G8 | 
[V:3] G,3F,E,2D,2 | 
[V:1] e2d2c3d | 
[V:2] z8 | 
[V:3] C,2B,,2A,,2A,2- | 
[V:1] e2f2e4 | 
[V:2] z8 | 
[V:3] A,G,D4^C2 | 
[V:1] d8 | 
[V:2] z4d4- | 
[V:3] D6C2 | 
[V:1] z8 | 
[V:2] d2c2B2A2 | 
[V:3] B,2A,2G,2F,2 | 
[V:1] g6f2 | 
[V:2] G3FGAB2- | 
[V:3] E,6D,2 | 
[V:1] e4d4 | 
[V:2] BAA4G2 | 
[V:3] C,2A,,2B,,4 | 
[V:1] c3de2f2 | 
[V:2] A2cBAGA2- | 
[V:3] A,,8- | 
[V:1] edd4^c2 | 
[V:2] A2F2E4 | 
[V:3] A,,8 | 
[V:1] d2fedcd2- | 
[V:2] D2dcBAB2- | 
[V:3] z4D,4- | 
[V:1] d2cBA4 | 
[V:2] B2AG^FGA^F | 
[V:3] D,4D,4 | 
[V:1] G6F2 | 
[V:2] G4z4 | 
[V:3] E,6D,2 | 
[V:1] E2DCD4 | 
[V:2] G4G4 | 
[V:3] C,2B,,A,,B,,4 | 
[V:1] E4z4 | 
[V:2] A6G2 | 
[V:3] A,,8- | 
[V:1] c4c4 | 
[V:2] F2EDE4 | 
[V:3] A,,8 | 
[V:1] d6c2 | 
[V:2] DCDEFGA2- | 
[V:3] z4D,4- | 
[V:1] B2AGA4 | 
[V:2] AGG4^F2 | 
[V:3] D,4D,4 | 
[V:1] G6F2 | 
[V:2] G4z4 | 
[V:3] E,6D,2 | 
[V:1] E2DCD4 | 
[V:2] G4G4 | 
[V:3] C,2B,,A,,B,,4 | 
[V:1] E4z4 | 
[V:2] A6G2 | 
[V:3] A,,8 | 
[V:1] c4c4 | 
[V:2] F2EDE4 | 
[V:3] z4A,,4 | 
[V:1] d6c2 | 
[V:2] D8- | 
[V:3] B,,C,D,E,F,G,A,2- | 
[V:1] B2AGA4 | 
[V:2] D8 | 
[V:3] A,G,G,4^F,2 | 
[V:1] G4d4 | 
[V:2] B3BB2B2 | 
[V:3] G,2G,,A,,B,,C,D,E, | 
[V:1] z8 | 
[V:2] A2B4AG | 
[V:3] F,2G,4F,E, | 
[V:1] f3ff2f2 | 
[V:2] A2DEFGAB | 
[V:3] D,3D,D,2D,2 | 
[V:1] e2f4ed | 
[V:2] c2A2d4 | 
[V:3] C,2D,4C,B,, | 
[V:1] e8 | 
[V:2] cBAGcBAG | 
[V:3] A,,2CB,A,G,CB, | 
[V:1] z8 | 
[V:2] FGABA2G2 | 
[V:3] A,G,F,G,A,F,G,2 | 
[V:1] gfedgfed | 
[V:2] z8 | 
[V:3] C,2G,F,E,D,G,F, | 
[V:1] cdefe2d2 | 
[V:2] z8 | 
[V:3] E,D,C,D,E,C,D,2 | 
[V:1] z4f3f | 
[V:2] B3BB2B2 | 
[V:3] G,,4D,3D, | 
[V:1] f2f2f2f2 | 
[V:2] B2B2A2B2 | 
[V:3] D,2D,2D,2D,2 | 
[V:1] e4z4 | 
[V:2] cBAGF2GA | 
[V:3] C,2zC,D,C,B,,A,, | 
[V:1] z2f2gfed | 
[V:2] BGA2G2zG | 
[V:3] G,,2zD,_E,D,C,B,, | 
[V:1] c2defde2 | 
[V:2] AGFED2zc | 
[V:3] A,,2B,,4A,,2 | 
[V:1] d2zfgfed | 
[V:2] dcBAG2zG | 
[V:3] z2D,2_E,D,C,B,, | 
[V:1] c2d2d2^c2 | 
[V:2] AGFED2E2 | 
[V:3] A,,2B,,4A,,2 | 
[V:1] d2zBcBAG | 
[V:2] D2zd_edcB | 
[V:3] D,D,D,D,C,C,C,C, | 
[V:1] F2G2G2^F2 | 
[V:2] A2G2A2A2 | 
[V:3] D,2B,,2C,2D,2 | 
[V:1] G8 |]  
[V:2] G8 |]  
[V:3] G,,8 |]  



